-----BEGIN PGP PUBLIC KEY BLOCK-----

mQINBGolnzIBEAC5G4ru3frLq6mpBRP/cRgqlFxG42K8g4/A+ZQa8qkOUfDpCfXt
jBLV9pQKd2qYWiE/Oi2iU+XLSiXS19lMzOcxKVd1rXujzYcQVvKSS0DAfYdTI4AM
elYwmA3PdThHKfdiajxXGzxbst9ERy8VuC6IDzDXVIojx6jQXMZ2FRDs9PT2ds70
LqYRu4BhKxuUuQKEDJuoYDYDtubFl4OryXCL3YkRXDnwk0CbqlGw28+qLQLueVZm
KnD8a9Y6S/owO0tTL/gR3QucWzvijqSrVBUJNLXcrHuUBRUbknDldoBM7SgSU0FA
Xb+OY+iMkp4a3eLXS5iEh0XYKLDzBFkKLXcJjPaIxo87TW03LHgjm8UzkRHDkDGC
bYsyDsuxKhH991yLjS8+EdixdqrA77r+Rt4UPJufDPqnCY0vuQrp4YrIRTg7LYaB
EKggbs98tZIi00rvnp9UqlmsxhWldivPL7ug6RhgZsFT3kTGa7ICYyDRc7nFTc5x
keITM6U8SizYokOGKELQ6zxDNIbVDOKtZ6R1HP+j1oxVDWd6gPFSb7j3mWMXOSvg
4zUz+wT8QdzKdpQOwHYVjYcj4VXvtyPQwghH/nUpx4tvMhBntdXRYzlAbIPtPrlK
Agyxpm9NMoDh7NoBF8zDQSAR/ngbp4M7LS15OZQ+p0o41jR0MKw4iT4NcQARAQAB
tC9jbGlmb3JnZSBhcHQgc2lnbmluZyA8c2hyaWthbnQuc2FnYXJAZ21haWwuY29t
PokCUgQTAQoAPBYhBPvhQmN1Hr0w4Xy+HmF6yRVqfwNSBQJqJZ8yAxsvBAULCQgH
AgIiAgYVCgkICwIEFgIDAQIeBwIXgAAKCRBheskVan8DUsnyD/4gqgV9XnFAkTV3
NOBw06bLk7jS8fT3hC8VTYaTd/KeF5UTO6KGgjMjiUnofcJCq5MdVXVIh71m7uPs
XbdEvasEDNwdCQ90SqcoGQDA5Q4UWLZozvGCnTDJosnBwUyJJjQzlIXocUGJa1Qp
plFTo+pF4kdviITI+0IH42rZ17w2R4LqPv9wn5MrgvjM/dHTeTvuKezpp13QMd9N
12HDTypplsnTKCZPDCrUmITqLbLnEk8oLSCTCui/Gwyjr6mdgBFJfgARUbTNFvFV
dBL6/tHux4J0776E086X3WyEZKv+ruyQWEcKiczKY99uUmFXZgpCISpKQEN9Q8x7
nNAJZEsXbUvrMOrgoDI2dlevgFJzaFgZ0EbFxtqA2uJng7uFVKWtBhXI57nR7nJO
/GMxgdI+/saQws1YrG/FYqXPm/3gVqyhmJWzeBLGTOCysOxYzOOeIEWKoNu6uTv9
z6a4fhmu01Gbsb9V23wo1AIMFnhQ4zjLScrnadUIgzSp6FwpROhJo0HDigwfeTSf
qncKjHBz/PSwMnaMytYnsO14Zb2L1APajhQkFM5WGkDm7iwTwdXgUKbdjTIWBPeY
WWPKpjyLXQBJVvgw+9XB8WFnB1S8kS9W070aXH9FmBCPBZFRcwRDdTOa5PoSzF1m
EeFcNgEYW2rNSa8j1RQK1bSDHP1yHw==
=W9Er
-----END PGP PUBLIC KEY BLOCK-----
